X: 361
M: 2/2
L: 1/8
K: G
!segno!GA |\
EDEF E2D2 | EDEF E2D2 | c4 !+!B4 | A6 GA |
EDEF E2D2 | EDEF E2c2 | B4 !+!A4 | HG6 |]
[| "2.F."d2 |\
c2B2 A2G2 | AGAB A2d2 | c2B2 A2G2 | !+!A4 A2d2 |\
c2B2 A2G2 | AGAB A2d2 | c2B2 A2G2 | !+!A4 A2 !segno!y|]

